X: 11676
T: Eileen O'Riordan's
R: slide
M: 12/8
K: Adorian
|:~E2A AGA ~E2A AGA|e2A ABA ~G3 FED|
~E2A AGA ~E2A AB/c/d|1 ege dcB ~A3 GF/E/D:|2 ~e3 dcB ~A3 AB/c/d||
|:e3 edc ~d3 dB/c/d|e2A ABA ~G3 FED|
E2A AGA E2A AB/c/d|1 ~e3 dcB ~A3 AB/c/d:|2 ~e3 dcB ~A3 GF/E/D||

